!!!!SEGMENT: pl-kozmzk--mzk-m-159--017_walczynski-franciszek--praeludia-organi-op-5-largo.krn
!!!cenid: 18xx:2760
!!!COM: Walczyński, Franciszek
!!!COM-rismID: pe30021989
!!!CDT: ~1852-1937
!!!CNT: Polish
!!!GTL: Praeludia organi op. 5
!!!OTL: 17. Largo
!!!PDT: 1894
!!!AGN: Secular; Prelude
!!!SMS-siglum: PL-KOZmzk
!!!SMS-shelfmark: mzk/m/159
!!!SMS-shelfwork: 017 G
!!!SMS-variant:
!!!SMS-altvar:
!!!NIFC-rismSourceID: 1001084394
!!!NIFC-rismChildID: 1001116716
!!!NIFC-islandoraID: pl-kozmzk:2265
!!!URL-pdf-islandora: https://repozytorium.nifc.pl/islandora/object/pl-kozmzk%3A2265/datastream/PDF/view
!!!URL-scan: https://polish.musicsources.pl/pl/lokalizacje/galeria/druki-muzyczne/7406 @EN{Scan on Polish Music Sources Website} @PL{Skany w portalu Dziedzictwo Muzyki Polskiej w otwartym dostępie}
!!!ONB-nifc: UWAGA: numeracja plików zgodna z numeracją źrodłową
!!!OMD: 17. Largo.
!!!AIN: 1 empty 1 organ
!!!key:
**kern	**kern	**dynam
*part2	*part1	*part1
*staff2	*staff1	*
*Iempty	*Iorgan	*
*	*I"[Organo]	*
*clefF4	*clefG2	*
*k[f#]	*k[f#]	*
*e:	*e:	*
*M4/4	*M4/4	*
*met(c)	*met(c)	*
=1	=1	=1
*^	*^	*
!	!	!	!	!LO:DY:b=2
1rf	4r	1rg	1r	p
.	((4BB\	.	.	.
.	4B\)	.	.	.
.	4A'\)	.	.	.
=2	=2	=2	=2	=2
1r	2G\	1rff	4r	p
.	.	.	(4B\	.
.	2F#\	.	4b\)	.
.	.	.	4a'\	.
=3	=3	=3	=3	=3
1r	(4E\	1rff	(4g\	.
.	4D\	.	4g#X\	.
.	4C\	.	4a\	.
.	4C#X\	.	4gn\	.
=4	=4	=4	=4	=4
4r	4D\)	4r	4f#\)	.
!	!	!LO:TX:t=P:problem=pf się nie wyświetla	!	!LO:DY:a
(4F#/	(4D\	(4d/	2.d\	pf
4G/	4E\	4dd/)	.	.
4A/)	4F#\)	[4cc^/	.	.
=5	=5	=5	=5	=5
2G/	2G\	4cc/]	2d\	.
.	.	2b/	.	.
2B/	2F#\	.	2d#X\	.
.	.	4a/	.	.
=6	=6	=6	=6	=6
(2B/	(4E\	(4g/	[1e\	f <
.	4D\	4g#X/	.	.
4A/	4C\	4a/	.	.
4G#X/	4BB\	4b/	.	[[
=7	=7	=7	=7	=7
1A/)	2AA\	4dd/	1e\]	>
.	.	4cc/	.	.
.	2C\)	4b/	.	.
.	.	4a/)	.	]]
=8	=8	=8	=8	=8
4B/	[1BB\	(2g/	2.e\	p
(4BB/	.	.	.	.
4B/)	.	2f#/	.	.
4A'/	.	.	4d#X\	.
=9	=9	=9	=9	=9
2G/	1BB\]	4f#/	2B\	.
.	.	2e^/	.	.
2F#/	.	.	2A\	.
.	.	4d#X/)	.	.
=10	=10	=10	=10	=10
!	!LO:TX:b:i:t=Ped.	!	!	!
4E/	[1EE\	[1e/	2G\	.
(4EE/	.	.	.	.
4E/)	.	.	2G#X\	.
4D/	.	.	.	.
=11	=11	=11	=11	=11
!	!	!	!	!LO:DY:a
(2Cn/	1EE\_	1e/_	(4G\	pp
.	.	.	4A\	.
4AA/	.	.	4F#\	.
4C/	.	.	4A\	.
=12	=12	=12	=12	=12
1BB/)	1EE\;]	1e/;]	1G#X\)	.
*v	*v	*	*	*
*	*v	*v	*
==	==	==
*-	*-	*-
!!!system-decoration: {(s1,s2)}
!!!EED: Andrzej Borzym
!!!EEV: 2021-08-08
!!!ENC: Katarzyna Serwa
!!!END: 2021-07-26
!!!YEC: Copyright 2022 Narodowy Instytut Fryderyka Chopina (https://polishscores.org)
!!!YEM: License CC-BY-4.0 (https://creativecommons.org/licenses/by/4.0)
